outputs/icons/general/clipboard_outline_round.svg

<svg xmlns="http://www.w3.org/2000/svg" width="1200" height="1200" fill="none"><path fill="#000" d="M911.11 198.928H725.335c-25.335-78-101.78-118-169.78-90-38.22 15-66.666 48.001-80.888 90H288.889c-23.575 0-46.184 10.536-62.854 29.29S200 272.407 200 298.929V998.93c0 26.52 9.365 51.955 26.035 70.71s39.279 29.29 62.854 29.29H911.11c23.575 0 46.185-10.535 62.855-29.29S1000 1025.45 1000 998.93V298.929c0-26.522-9.365-51.958-26.035-70.711-16.67-18.754-39.28-29.29-62.855-29.29m-311.11 0c11.785 0 23.09 5.268 31.425 14.645s13.02 22.095 13.02 35.356-4.685 25.978-13.02 35.355-19.64 14.645-31.425 14.645-23.09-5.268-31.425-14.645-13.02-22.094-13.02-35.355 4.685-25.979 13.02-35.356 19.64-14.645 31.425-14.645M377.778 386.429c0 6.903 5.596 12.5 12.5 12.5H809.72c6.905 0 12.5-5.597 12.5-12.5v-87.5h88.89V998.93H288.889V298.929h88.889zM822.22 548.93c0 27.615-22.385 50-50 50H427.778c-27.615 0-50-22.385-50-50s22.385-50.002 50-50.002H772.22c27.615 0 50 22.387 50 50.002m-88.885 200c0 27.615-22.385 50-50 50H427.778c-27.615 0-50-22.385-50-50s22.385-50 50-50h255.557c27.615 0 50 22.385 50 50"/></svg>

<svg width="1200" height="1200" viewBox="0 0 1200 1200" fill="none" xmlns="http://www.w3.org/2000/svg"><path d="M911.11 198.928H725.335C700 120.928 623.555 80.928 555.555 108.928C517.335 123.928 488.889 156.929 474.667 198.928H288.889C265.314 198.928 242.705 209.464 226.035 228.218C209.365 246.971 200 272.407 200 298.929V998.93C200 1025.45 209.365 1050.885 226.035 1069.64C242.705 1088.395 265.314 1098.93 288.889 1098.93H911.11C934.685 1098.93 957.295 1088.395 973.965 1069.64C990.635 1050.885 1000 1025.45 1000 998.93V298.929C1000 272.407 990.635 246.971 973.965 228.218C957.295 209.464 934.685 198.928 911.11 198.928ZM600 198.928C611.785 198.928 623.09 204.196 631.425 213.573C639.76 222.95 644.445 235.668 644.445 248.929C644.445 262.19 639.76 274.907 631.425 284.284C623.09 293.661 611.785 298.929 600 298.929C588.215 298.929 576.91 293.661 568.575 284.284C560.24 274.907 555.555 262.19 555.555 248.929C555.555 235.668 560.24 222.95 568.575 213.573C576.91 204.196 588.215 198.928 600 198.928ZM377.778 386.429C377.778 393.332 383.374 398.929 390.278 398.929H809.72C816.625 398.929 822.22 393.332 822.22 386.429V298.929H911.11V998.93H288.889V298.929H377.778V386.429ZM822.22 548.93C822.22 576.545 799.835 598.93 772.22 598.93H427.778C400.163 598.93 377.778 576.545 377.778 548.93C377.778 521.315 400.163 498.928 427.778 498.928H772.22C799.835 498.928 822.22 521.315 822.22 548.93ZM733.335 748.93C733.335 776.545 710.95 798.93 683.335 798.93H427.778C400.163 798.93 377.778 776.545 377.778 748.93C377.778 721.315 400.163 698.93 427.778 698.93H683.335C710.95 698.93 733.335 721.315 733.335 748.93Z" fill="black"/></svg>
